X:41
T:Irish Lady
K:Bbmaj clef=treble
M:4/4
M:6/8
L:1/8
P:A
[||:"Gm"gab abc' | "F"f2f f2g | "F"a>ba/2g/2 f2a/2g/2 |1 "Dm"fdd d2d :|2 "Dm"fdd d2c ||
P:B
"Gm"BBB BAG | "Gm"bbb bag | "Gm" a2b c'>ba/2b/2 |1 "Gm" g2d g2d 
%Warning : No repeat expected, found :|
:|2 "Gm" g2d g3 
%Warning : No repeat expected, found :|
:|

